X:1
T:James Gibb editions
T:O Lord my God, do Thou thy holy will - Barnby
%%score [ ( 1 2 ) ( 3 4 ) ]
L:1/8
Q:1/4=84
M:4/4
K:Eb
V:1 treble nm="Midi_74"
V:2 treble 
V:3 bass nm="Midi_74"
V:4 bass 
V:1
"^Smoothly""^John Keble\n(1792-1866)""^O Lord my God, do Thou thy holy will""^Keble (10 4. 10 4. 10 4)""^Joseph Barnby\n(1838-96)" G2 | %1
 B2 A2 G2 F2 | E2 D2 C2 A2 | F3 z || B4 | G4 F4 | G6 || G2 | c2 B2 A2 G2 | F2 A2 G2 B2 | A3 z || %11
[M:4/4] c4 | B4 e4 | d6 || d2 | e2 c2 B2 G2 | B2 A2 G2 E2 | G3 z || F4 | E4 D4 | E6 || E4 E4 |] %22
V:2
 E2 | F2 D2 E2- D2 | E2 =B,2 C2 F2 | D3 z || E4 | E4 D4 | E6 || _D2 | C2 C2 =E2 E2 | F2 F2 F2 =E2 | %10
 F3 z ||[M:4/4] C4 | F4 E4 | F6 || F2 | E2 E2 F2 E2 | !>!_D2 C2 =D2 E2 | E3 z || C4 | B,4 B,4 | %20
 B,6 || C4 B,4 |] %22
V:3
 B,2 | B,2 B,2 B,2 A,2 | G,2 F,2 E,2 C2 | B,3 z || B,4 | B,4 B,4 | B,6 || B,2 | B,2 G,2 A,2 B,2 | %9
 A,2 C2 _D2 C2 | C3 z ||[M:4/4] A,4 | A,4 A,4 | %13
"^1. O Lord, my God,do Thou Thy holy will:\n I will lie still.\nI will not stir, lest I forsake Thine arm,\n And break the charm\nWhich lulls me, clinging to my Father's breast,\n In perfect rest.\n\n2. To the still wrestlings of the lonely heart\n Doth Christ impart\nThe virtue of His midnight agony,\n When none was nigh,\nSave God and one good angel, to assuage\n The tempest's rage.\n\n3. \"O Father, not my will, but Thine, be done,\"\n So spake the Son.\nBe this our charm, mellowing earth's ruder noise\n Of griefs and joys;\nThat we may cling for ever to Thy breast\n In perfect rest.\n" (!>!A,4 G,2) || %14
 G,2 | G,2 A,2 F,2 B,2 | G,2 A,2 D,2 G,2 | =A,3 z || F,4 | (F,2 G,2) A,4 | G,6 || A,4 G,4 |] %22
V:4
 E,2 | D,2 F,2 E,2 B,,2 | C,2 G,,2 A,,2 F,,2 | B,,3 z || G,,4 | B,,4 B,,4 | E,6 || E,2 | %8
 =E,2 E,2 C,2 C,2 | F,2 A,,2 B,,2 C,2 | F,3 z ||[M:4/4] E,4 | D,4 C,4 | =B,,6 || =B,,2 | %15
 C,2 C,2 D,2 E,2 | =E,2 F,2 =B,,2 C,2 | F,,3 z || =A,,4 | B,,4 B,,4 | E,,6 || A,,4 E,,4 |] %22

